cmd/conneroh/_static/dist/svg/trophy.svg

<svg height="18" viewBox="0 0 18 18" width="18" xmlns="http://www.w3.org/2000/svg"><g fill="none" stroke="#fff" stroke-linecap="round" stroke-linejoin="round" stroke-width="2" transform="scale(.75)"><path d="m6 9h-1.5c-1.380208 0-2.5-1.119792-2.5-2.5s1.119792-2.5 2.5-2.5h1.5m12 5h1.5c1.380208 0 2.5-1.119792 2.5-2.5s-1.119792-2.5-2.5-2.5h-1.5m-14 18h16m-10-7.338542v2.338542c0 .552083-.46875.979167-.96875 1.208333-1.182292.541667-2.03125 2.03125-2.03125 3.791667m7-7.338542v2.338542c0 .552083.46875.979167.96875 1.208333 1.182292.541667 2.03125 2.03125 2.03125 3.791667"/><path d="m18 2h-12v7c0 3.3125 2.6875 6 6 6s6-2.6875 6-6zm0 0"/></g></svg>

<svg xmlns="http://www.w3.org/2000/svg" width="24" height="24" fill="none" stroke="white" stroke-linecap="round" stroke-linejoin="round" stroke-width="2">
    <path d="M6 9H4.5a2.5 2.5 0 0 1 0-5H6m12 5h1.5a2.5 2.5 0 0 0 0-5H18M4 22h16m-10-7.34V17c0 .55-.47.98-.97 1.21C7.85 18.75 7 20.24 7 22m7-7.34V17c0 .55.47.98.97 1.21C16.15 18.75 17 20.24 17 22"/>
    <path d="M18 2H6v7a6 6 0 0 0 12 0z"/>
</svg>
